svgs/solid/flashlight.svg

<svg xmlns="http://www.w3.org/2000/svg" viewBox="0 0 640 512"><!-- Font Awesome Pro 6.0.0-alpha2 by @fontawesome - https://fontawesome.com License - https://fontawesome.com/license (Commercial License) --><path d="M384 160H32C14.375 160 0 174.375 0 192V320C0 337.625 14.375 352 32 352H384L400.125 362.75C443.25 391.5 492.75 408.375 544 413.625V98.375C492.75 103.625 443.25 120.5 400.125 149.25L384 160ZM288 288H256C238.375 288 224 273.625 224 256S238.375 224 256 224H288C305.625 224 320 238.375 320 256S305.625 288 288 288ZM608 96H576V416H608C625.625 416 640 401.625 640 384V128C640 110.375 625.625 96 608 96Z"/></svg>

<svg xmlns="http://www.w3.org/2000/svg" viewBox="0 0 640 512"><!--! Font Awesome Pro 6.4.0 by @fontawesome - https://fontawesome.com License - https://fontawesome.com/license (Commercial License) Copyright 2023 Fonticons, Inc. --><path d="M576 416h32c17.7 0 32-14.3 32-32V128c0-17.7-14.3-32-32-32H576V416zM544 97.7C449.1 107.9 384 160 384 160H48c-26.5 0-48 21.5-48 48v96c0 26.5 21.5 48 48 48H384s65.1 52.1 160 62.3V97.7zM224 256c0-17.7 14.3-32 32-32h32c17.7 0 32 14.3 32 32s-14.3 32-32 32H256c-17.7 0-32-14.3-32-32z"/></svg>
